X:1

T:Barney O’Finnigan

M:6/8

L:1/8

R:Air

N:”Slow”

S:O’Neill – Music of Ireland (1903), No. 46

Z:AK/Fiddler’s Companion

K:G

c|Bdc BAG|(D3 D2) c|Bdc BAG|B>C(d d)zc|Bdc BAG|(c3 c2) c/c/|

c>BA BAG|FE(D Dz||D|G G/G/ GAG|(F3 F2)D|G2 G/G/ GAB|

c>B(A A)zd|G2 G/G/ GAG|(F3 F2)G|A2 A/A/ ABG|F>E(D D)z||

                       

BARNEY O'NEILL (Brian Ua Neill). AKA and see “Doctor O’Neill [2].” Irish, Double Jig. D Major. Standard tuning. AABB. A variant appears in the James Goodman (1828-1896) manuscripts under the title “Doctor O’Neill.” O'Neill (Krassen), 1976; pg. 71. O'Neill (Music of Ireland: 1850 Melodies), 1903/1979; No. 1106, pg. 208. O'Neill (Dance Music of Ireland: 1001 Gems), 1907/1986; No. 296, pg. 64. Sweet (Fifer’s Delight), 1964; pg. 28.

